svg/alert-triangle-color.svg

<svg viewBox="0 0 24 24" xmlns="http://www.w3.org/2000/svg"><path d="M19.5311 21C21.0718 21 22.0339 19.3313 21.262 17.9979L13.7308 4.98966C12.9605 3.65909 11.0395 3.65909 10.2691 4.98966L2.73804 17.9979C1.96611 19.3313 2.92822 21 4.46889 21H19.5311ZM13 18H11V16H13V18ZM13 14H11V10H13V14Z" fill="#fa8f37"/></svg>

<svg viewBox="0 0 24 24" xmlns="http://www.w3.org/2000/svg"><path d="M1 21h22L12 2 1 21zm12-3h-2v-2h2v2zm0-4h-2v-4h2v4z" fill="#fa8f37"/></svg>
